img/zomentum-logo.svg

<svg width="202" height="28" viewBox="0 0 202 28" fill="none" xmlns="http://www.w3.org/2000/svg">
<g clip-path="url(#clip0)">
<path d="M144.357 8V0H136.277L144.357 8Z" fill="url(#paint0_linear)"/>
<path d="M31.9101 8.49635C38.0872 8.49635 42.5956 12.4964 42.5956 18.219C42.5956 23.9416 38.0287 28 31.9101 28C25.7916 28 21.1661 24.0876 21.1661 18.219C21.1661 12.4964 25.7038 8.49635 31.9101 8.49635ZM56.238 9.0219C59.0191 9.0219 61.6246 10.1314 62.5322 12.4672C63.9374 10.1898 66.3965 8.87591 68.9727 9.0219C73.7446 9.0219 77.7846 10.9197 77.7846 18.4818V28.0292H72.4858V18.4526C72.4858 14.6861 71.0513 13.3139 68.9142 13.2555C65.9867 13.2555 64.4643 15.5036 64.4643 18.5985V28.0292H59.224V18.5693C59.224 14.8029 57.8774 13.2555 55.7403 13.2263C53.3397 13.2263 51.2026 14.7153 51.2026 18.7737V28.0292H45.9038V9.34307H50.2951L50.7342 11.6204C52.0223 9.83942 54.1009 8.87591 56.238 9.0219ZM114.525 8.9927C119.297 8.9927 124.45 11.1825 124.45 18.4526V28H119.121V18.3358C119.297 17.0219 118.917 15.708 118.038 14.7153C117.189 13.7518 115.96 13.1971 114.672 13.2555C113.354 13.1387 112.037 13.635 111.071 14.6277C110.134 15.5912 109.607 16.9635 109.695 18.3358V28H104.425V9.31387H108.934L109.402 11.5912C110.632 9.92701 112.505 8.9635 114.525 8.9927ZM180.395 9.0219C183.147 9.0219 185.811 10.1314 186.777 12.4672C188.153 10.219 190.583 8.90511 193.159 9.0219C197.96 9.0219 201.971 10.9197 201.971 18.4818V28.0292H196.73V18.4526C196.73 14.6861 195.296 13.3139 193.159 13.2555C190.231 13.2555 188.68 15.5036 188.68 18.5985V28.0292H183.439V18.5401C183.439 14.7737 182.093 13.2263 179.956 13.1971C177.555 13.1971 175.389 14.6861 175.389 18.7445V28H170.119V9.34307H174.51L174.95 11.6204C176.238 9.86861 178.287 8.87591 180.395 9.0219ZM134.989 0V8.78832H141.898V12.6131H134.989V19.6788C134.989 20.9343 135.545 22.1314 136.511 22.8905C137.419 23.6204 138.619 23.8832 139.731 23.5912L139.878 23.562L143.01 26.7445L142.776 26.8613C141.371 27.5912 139.848 27.9708 138.268 28C132.881 27.9124 129.953 24.5839 129.895 19.854V19.6788V12.6131H126.352V8.78832H129.895V0H134.989ZM165.347 9.34307V27.708H160.839L160.341 25.4307C159.17 27.0949 157.267 28.0584 155.277 28.0292C150.534 28.0876 145.469 25.8686 145.352 18.7737V18.5693V8.9927L150.68 14.365V18.6569C150.505 19.9708 150.885 21.2847 151.763 22.2774C152.612 23.2409 153.842 23.7956 155.13 23.7372C156.448 23.854 157.765 23.3285 158.702 22.365C159.609 21.4307 160.107 20.146 160.078 18.8321V18.6861V9.34307H165.347ZM90.9585 8.49635C97.6041 8.49635 101.615 13.1971 101.059 20.1752H85.9817C86.5087 22.9489 89.0556 23.7372 91.2806 23.7372C92.0417 23.7372 92.8322 23.6496 93.564 23.4453L96.7551 26.6277C94.9107 27.5912 92.8907 28.0876 90.8414 28C84.8985 28 80.6536 24.0292 80.6536 18.2482C80.6536 12.4672 84.9278 8.49635 90.9585 8.49635ZM27.2261 15.4745C26.2307 17.1679 26.2307 19.2993 27.2261 21.0219C28.2214 22.7153 30.0365 23.7372 31.9687 23.6204C33.3739 23.6788 34.7206 23.1241 35.6867 22.1022C36.682 21.0803 37.209 19.708 37.1797 18.2482H37.2675C37.2968 16.7883 36.7406 15.3869 35.7452 14.365C34.7498 13.3431 33.3739 12.8175 31.9687 12.8759C30.0365 12.7883 28.2214 13.781 27.2261 15.4745ZM96.111 16.3212C95.4084 14.0438 93.3006 12.6131 91.0171 12.8175C88.7629 12.6131 86.6843 14.0438 85.9817 16.3212H96.111Z" fill="black"/>
<path d="M15.1646 9.34326H19.351L8.40203 23.971H19.6145V28.0002H0L10.9783 13.3433H0.0585507V9.34326H15.1646Z" fill="black"/>
</g>
<defs>
<linearGradient id="paint0_linear" x1="143.768" y1="0.133402" x2="140.51" y2="3.81079" gradientUnits="userSpaceOnUse">
<stop offset="0.1195" stop-color="#2F70FE"/>
<stop offset="0.469" stop-color="#089DEE"/>
<stop offset="0.7684" stop-color="#09D191"/>
<stop offset="0.974" stop-color="#6DED02"/>
</linearGradient>
<clipPath id="clip0">
<rect width="202" height="28" fill="white"/>
</clipPath>
</defs>
</svg>

<svg width="202" height="28" fill="none" xmlns="http://www.w3.org/2000/svg"><g clip-path="url(#clip0)"><path d="M144.357 8V0h-8.08l8.08 8z" fill="url(#paint0_linear)"/><path d="M31.91 8.496c6.177 0 10.686 4 10.686 9.723 0 5.723-4.567 9.781-10.686 9.781-6.118 0-10.744-3.912-10.744-9.781 0-5.723 4.538-9.723 10.744-9.723zm24.328.526c2.781 0 5.387 1.11 6.294 3.445 1.405-2.277 3.865-3.591 6.44-3.445 4.773 0 8.813 1.898 8.813 9.46v9.547h-5.3v-9.576c0-3.767-1.434-5.14-3.57-5.197-2.928 0-4.45 2.248-4.45 5.343v9.43h-5.241v-9.46c0-3.766-1.347-5.313-3.484-5.343-2.4 0-4.537 1.49-4.537 5.548v9.255h-5.3V9.343h4.392l.44 2.277a6.26 6.26 0 015.503-2.598zm58.287-.03c4.772 0 9.925 2.19 9.925 9.46V28h-5.329v-9.664a4.523 4.523 0 00-1.083-3.62c-.849-.964-2.078-1.519-3.366-1.46-1.318-.117-2.635.379-3.601 1.372a4.933 4.933 0 00-1.376 3.708V28h-5.27V9.314h4.509l.468 2.277c1.23-1.664 3.103-2.627 5.123-2.598zm65.87.03c2.752 0 5.416 1.11 6.382 3.445 1.376-2.248 3.806-3.562 6.382-3.445 4.801 0 8.812 1.898 8.812 9.46v9.547h-5.241v-9.576c0-3.767-1.434-5.14-3.571-5.197-2.928 0-4.479 2.248-4.479 5.343v9.43h-5.241V18.54c0-3.766-1.346-5.314-3.483-5.343-2.401 0-4.567 1.49-4.567 5.547V28h-5.27V9.343h4.391l.44 2.277c1.288-1.751 3.337-2.744 5.445-2.598zM134.989 0v8.788h6.909v3.825h-6.909v7.066c0 1.255.556 2.452 1.522 3.212a3.67 3.67 0 003.22.7l.147-.029 3.132 3.182-.234.117A10.113 10.113 0 01138.268 28c-5.387-.088-8.315-3.416-8.373-8.146v-7.241h-3.543V8.788h3.543V0h5.094zm30.358 9.343v18.365h-4.508l-.498-2.277a6.095 6.095 0 01-5.064 2.598c-4.743.059-9.808-2.16-9.925-9.255V8.993l5.328 5.372v4.292a4.53 4.53 0 001.083 3.62c.849.964 2.079 1.519 3.367 1.46 1.318.117 2.635-.409 3.572-1.372a4.934 4.934 0 001.376-3.533V9.343h5.269zm-74.389-.847c6.646 0 10.657 4.701 10.101 11.68H85.982c.527 2.773 3.074 3.561 5.299 3.561.76 0 1.551-.087 2.283-.292l3.191 3.183c-1.844.963-3.864 1.46-5.914 1.372-5.942 0-10.187-3.97-10.187-9.752 0-5.78 4.274-9.752 10.305-9.752zm-63.732 6.979c-.995 1.693-.995 3.824 0 5.547.995 1.693 2.81 2.715 4.743 2.598a4.829 4.829 0 003.718-1.518c.995-1.022 1.522-2.394 1.493-3.854h.087a5.415 5.415 0 00-1.522-3.883 4.971 4.971 0 00-3.776-1.49c-1.933-.087-3.748.906-4.743 2.6zm68.885.846c-.703-2.277-2.81-3.708-5.094-3.504-2.254-.204-4.333 1.227-5.035 3.504H96.11zM15.165 9.343h4.186L8.402 23.971h11.213v4.03H0l10.978-14.658H.058v-4h15.107z" fill="#000"/></g><defs><linearGradient id="paint0_linear" x1="143.768" y1=".133" x2="140.51" y2="3.811" gradientUnits="userSpaceOnUse"><stop offset=".119" stop-color="#2F70FE"/><stop offset=".469" stop-color="#089DEE"/><stop offset=".768" stop-color="#09D191"/><stop offset=".974" stop-color="#6DED02"/></linearGradient><clipPath id="clip0"><path fill="#fff" d="M0 0h202v28H0z"/></clipPath></defs></svg>
